X: 140
T: Yujia le
L: 1/8
M: 2/4
K: F
c2c2 [I:setbarnb 1]| 
c2A c | 
d e d c | 
d4 | 
f2f d | 
c d c A | 
G A G F | 
G4 | 
c2c A | 
c d c A | 
G2A G | 
F3D | 
F G A c | 
G F E D | 
C3D | 
C4 |]

@@@ Tune index: 9014
